X:40
T:Tak Your Old Cloak About Ye
C:arr. Carlo Minasi
M:3/4
L:1/8
B:Chappell's One Hundred Scotch Melodies
B:Arranged for the Concertina by Carlo Minasi
Q:"Andante  "1/4=120
Z:Peter Dunk 2012
K:Gm
!p!(G>A)|B>B B3 d|(c>B) A2 zc|(B>A G3) A|(^F>=E D3) zA|
B>B B3 d|(c>B) A2 zc|(B>A G3) A|(^F>=E D3) zA|
[([BD]>[=F)D] [F3D3] [EC]|([DB,]<[FD]) [F2D2] zF|\
([DB,]>[GB,]) [G3B,3] [A^FD]|([BG]>[cA]) [d2B2] z[cA]|
[BG]>B [B2G2E2] zB|([cA]>[dB]) [f2c2A2] Hz [^fc]|\
([gB]>[dB]) [e2c2] ([d^F]>c)|([BGD]>[AC] [G2B,2])||

